X: 1
T: Kilfenora
M: 4/4
L: 1/8
R: reel
K: Dmaj
d3A BAFB|A2FA GFEF|DEFA BAFB|ABde fdec|
d3A BAFB|A2FA GFEF|DEFA BAFB|ABde fdd2|
~f3 a gfed|B/c/d ef~g3z|~f3ag2 fg|afge fdec|
dfaf gfed|cABc defg|afge fdec|dfeg fdec||
